Newaita-dark/mimetypes/16/text-x-apport.svg

<?xml version="1.0" encoding="UTF-8"?>
<svg xmlns="http://www.w3.org/2000/svg" xmlns:xlink="http://www.w3.org/1999/xlink" width="16px" height="16px" viewBox="0 0 16 16" version="1.1">
<defs>
<linearGradient id="linear0" gradientUnits="userSpaceOnUse" x1="254" y1="233.5" x2="254" y2="254.666672" gradientTransform="matrix(0.031253,0,0,0.031253,0.33076,6.719393)">
<stop offset="0" style="stop-color:rgb(0%,0%,0%);stop-opacity:0.27451;"/>
<stop offset="1" style="stop-color:rgb(0%,0%,0%);stop-opacity:0;"/>
</linearGradient>
<radialGradient id="radial0" gradientUnits="userSpaceOnUse" cx="450.908936" cy="189.579361" fx="450.908936" fy="189.579361" r="21.166656" gradientTransform="matrix(0.0000000870852,-0.0390662,-0.0703192,-0.0000000507693,24.742285,31.797666)">
<stop offset="0" style="stop-color:rgb(0%,0%,0%);stop-opacity:0.313726;"/>
<stop offset="0.222222" style="stop-color:rgb(0%,0%,0%);stop-opacity:0.27451;"/>
<stop offset="1" style="stop-color:rgb(0%,0%,0%);stop-opacity:0;"/>
</radialGradient>
<radialGradient id="radial1" gradientUnits="userSpaceOnUse" cx="450.908936" cy="189.579361" fx="450.908936" fy="189.579361" r="21.166656" gradientTransform="matrix(-0.0000000870852,0.0390662,0.0703192,0.0000000507693,-9.196524,-3.763739)">
<stop offset="0" style="stop-color:rgb(0%,0%,0%);stop-opacity:0.313726;"/>
<stop offset="0.222222" style="stop-color:rgb(0%,0%,0%);stop-opacity:0.27451;"/>
<stop offset="1" style="stop-color:rgb(0%,0%,0%);stop-opacity:0;"/>
</radialGradient>
<radialGradient id="radial2" gradientUnits="userSpaceOnUse" cx="450.908936" cy="189.579361" fx="450.908936" fy="189.579361" r="21.166656" gradientTransform="matrix(-0.0000000870852,-0.0390662,0.0703192,-0.0000000507693,-9.196524,31.797666)">
<stop offset="0" style="stop-color:rgb(0%,0%,0%);stop-opacity:0.313726;"/>
<stop offset="0.222222" style="stop-color:rgb(0%,0%,0%);stop-opacity:0.27451;"/>
<stop offset="1" style="stop-color:rgb(0%,0%,0%);stop-opacity:0;"/>
</radialGradient>
<radialGradient id="radial3" gradientUnits="userSpaceOnUse" cx="450.908936" cy="189.579361" fx="450.908936" fy="189.579361" r="21.166656" gradientTransform="matrix(0.0000000870852,0.0390662,-0.0703192,0.0000000507693,24.742284,-3.76374)">
<stop offset="0" style="stop-color:rgb(0%,0%,0%);stop-opacity:0.313726;"/>
<stop offset="0.222222" style="stop-color:rgb(0%,0%,0%);stop-opacity:0.27451;"/>
<stop offset="1" style="stop-color:rgb(0%,0%,0%);stop-opacity:0;"/>
</radialGradient>
<linearGradient id="linear1" gradientUnits="userSpaceOnUse" x1="940" y1="1695.118164" x2="940" y2="175.118118" gradientTransform="matrix(0.00826902,0,0,0.00826902,0,0)">
<stop offset="0" style="stop-color:rgb(93.725491%,60.392159%,60.392159%);stop-opacity:1;"/>
<stop offset="1" style="stop-color:rgb(100%,80.392158%,82.352942%);stop-opacity:1;"/>
</linearGradient>
<linearGradient id="linear2" gradientUnits="userSpaceOnUse" x1="249.189423" y1="233.5" x2="249.189423" y2="254.666687" gradientTransform="matrix(0.0149471,0,0,0.0546927,7.521212,-8.180455)">
<stop offset="0" style="stop-color:rgb(0%,0%,0%);stop-opacity:0.27451;"/>
<stop offset="1" style="stop-color:rgb(0%,0%,0%);stop-opacity:0;"/>
</linearGradient>
<linearGradient id="linear3" gradientUnits="userSpaceOnUse" x1="338.666656" y1="233.5" x2="338.666656" y2="-168.666672" gradientTransform="matrix(0.031253,0,0,0.031253,0,6.719392)">
<stop offset="0" style="stop-color:rgb(93.725491%,32.549021%,31.37255%);stop-opacity:1;"/>
<stop offset="1" style="stop-color:rgb(89.803922%,45.09804%,45.09804%);stop-opacity:1;"/>
</linearGradient>
<linearGradient id="linear4" gradientUnits="userSpaceOnUse" x1="940" y1="1695.118164" x2="940" y2="175.118118" gradientTransform="matrix(1,0,0,1,0,0)">
<stop offset="0" style="stop-color:rgb(93.725491%,32.549021%,31.37255%);stop-opacity:1;"/>
<stop offset="1" style="stop-color:rgb(89.803922%,45.09804%,45.09804%);stop-opacity:1;"/>
</linearGradient>
</defs>
<g id="surface1">
<path style=" stroke:none;fill-rule:nonzero;fill:url(#linear0);" d="M 3.96875 14.015625 L 11.578125 14.015625 L 11.578125 14.679688 L 3.96875 14.679688 Z M 3.96875 14.015625 "/>
<path style=" stroke:none;fill-rule:nonzero;fill:url(#radial0);" d="M 11.578125 14.015625 L 12.898438 14.015625 L 12.898438 13.355469 L 11.578125 13.355469 Z M 11.578125 14.015625 "/>
<path style=" stroke:none;fill-rule:nonzero;fill:url(#radial1);" d="M 3.96875 14.015625 L 2.644531 14.015625 L 2.644531 14.679688 L 3.96875 14.679688 Z M 3.96875 14.015625 "/>
<path style=" stroke:none;fill-rule:nonzero;fill:url(#radial2);" d="M 3.96875 14.015625 L 2.644531 14.015625 L 2.644531 13.355469 L 3.96875 13.355469 Z M 3.96875 14.015625 "/>
<path style=" stroke:none;fill-rule:nonzero;fill:url(#radial3);" d="M 11.578125 14.015625 L 12.898438 14.015625 L 12.898438 14.679688 L 11.578125 14.679688 Z M 11.578125 14.015625 "/>
<path style=" stroke:none;fill-rule:nonzero;fill:url(#linear1);" d="M 9.269531 1.449219 L 3.308594 1.449219 C 2.941406 1.449219 2.644531 1.742188 2.644531 2.109375 L 2.644531 13.355469 C 2.644531 13.722656 2.941406 14.015625 3.308594 14.015625 L 12.238281 14.015625 C 12.605469 14.015625 12.898438 13.722656 12.898438 13.355469 L 12.898438 5.078125 Z M 9.269531 1.449219 "/>
<path style=" stroke:none;fill-rule:nonzero;fill:url(#linear2);" d="M 9.261719 4.589844 L 12.402344 4.589844 L 12.898438 5.085938 L 12.898438 5.746094 L 9.261719 5.746094 Z M 9.261719 4.589844 "/>
<path style=" stroke:none;fill-rule:nonzero;fill:rgb(0%,0%,0%);fill-opacity:0.235294;" d="M 2.644531 13.097656 L 2.644531 13.355469 C 2.644531 13.722656 2.941406 14.015625 3.308594 14.015625 L 12.238281 14.015625 C 12.605469 14.015625 12.898438 13.722656 12.898438 13.355469 L 12.898438 13.097656 C 12.898438 13.464844 12.605469 13.761719 12.238281 13.761719 L 3.308594 13.761719 C 2.941406 13.761719 2.644531 13.464844 2.644531 13.097656 Z M 2.644531 13.097656 "/>
<path style=" stroke:none;fill-rule:nonzero;fill:rgb(96.470588%,96.470588%,96.470588%);fill-opacity:0.588235;" d="M 3.308594 1.449219 C 2.941406 1.449219 2.644531 1.742188 2.644531 2.109375 L 2.644531 2.359375 C 2.644531 1.992188 2.941406 1.695312 3.308594 1.695312 L 9.269531 1.695312 L 12.898438 5.324219 L 12.898438 5.078125 L 9.269531 1.449219 Z M 3.308594 1.449219 "/>
<path style=" stroke:none;fill-rule:nonzero;fill:url(#linear3);" d="M 12.898438 5.078125 L 9.269531 1.449219 L 9.269531 4.414062 C 9.269531 4.78125 9.566406 5.078125 9.933594 5.078125 Z M 12.898438 5.078125 "/>
<path style=" stroke:none;fill-rule:nonzero;fill:rgb(0%,0%,0%);fill-opacity:0.235294;" d="M 9.269531 4.257812 L 9.269531 4.414062 C 9.269531 4.78125 9.566406 5.078125 9.933594 5.078125 L 12.898438 5.078125 L 12.742188 4.921875 L 9.933594 4.921875 C 9.566406 4.921875 9.269531 4.625 9.269531 4.257812 Z M 9.269531 4.257812 "/>
<path style=" stroke:none;fill-rule:nonzero;fill:rgb(100%,100%,100%);fill-opacity:0.392157;" d="M 9.269531 1.449219 L 9.269531 1.695312 L 12.652344 5.078125 L 12.898438 5.078125 Z M 9.269531 1.449219 "/>
<path style=" stroke:none;fill-rule:nonzero;fill:rgb(12.941177%,12.941177%,12.941177%);fill-opacity:1;" d="M 9.269531 1.402344 C 9.246094 1.402344 9.222656 1.421875 9.222656 1.449219 L 9.222656 4.414062 C 9.222656 4.808594 9.539062 5.125 9.933594 5.125 L 12.898438 5.125 C 12.917969 5.125 12.9375 5.113281 12.941406 5.09375 C 12.949219 5.078125 12.945312 5.058594 12.933594 5.042969 L 9.304688 1.414062 C 9.296875 1.40625 9.28125 1.402344 9.269531 1.402344 Z M 9.316406 1.5625 L 12.785156 5.03125 L 9.933594 5.03125 C 9.589844 5.03125 9.316406 4.757812 9.316406 4.414062 Z M 9.316406 1.5625 "/>
<path style=" stroke:none;fill-rule:nonzero;fill:rgb(12.941177%,12.941177%,12.941177%);fill-opacity:1;" d="M 3.308594 1.402344 C 2.914062 1.402344 2.597656 1.71875 2.597656 2.109375 L 2.597656 13.355469 C 2.597656 13.746094 2.914062 14.0625 3.308594 14.0625 L 12.238281 14.0625 C 12.628906 14.0625 12.945312 13.746094 12.945312 13.355469 L 12.945312 5.078125 C 12.945312 5.0625 12.941406 5.050781 12.933594 5.042969 L 9.304688 1.414062 C 9.296875 1.40625 9.285156 1.402344 9.269531 1.402344 Z M 3.308594 1.496094 L 9.25 1.496094 L 12.851562 5.097656 L 12.851562 13.355469 C 12.851562 13.695312 12.578125 13.96875 12.238281 13.96875 L 3.308594 13.96875 C 2.964844 13.96875 2.691406 13.695312 2.691406 13.355469 L 2.691406 2.109375 C 2.691406 1.769531 2.964844 1.496094 3.308594 1.496094 Z M 3.308594 1.496094 "/>
<path style="fill-rule:nonzero;fill:url(#linear4);stroke-width:11.338583;stroke-linecap:round;stroke-linejoin:round;stroke:rgb(12.941177%,12.941177%,12.941177%);stroke-opacity:1;stroke-miterlimit:4;" d="M 619.783366 694.894307 C 608.918261 694.894307 599.94274 703.869829 599.94274 715.207329 L 599.94274 754.888581 C 599.94274 766.226082 608.918261 775.201603 619.783366 775.201603 L 659.937014 775.201603 C 671.274514 775.201603 679.77764 766.226082 679.77764 754.888581 L 679.77764 715.207329 C 679.77764 703.869829 671.274514 694.894307 659.937014 694.894307 Z M 779.925562 694.894307 C 769.060457 694.894307 760.084936 703.869829 760.084936 715.207329 L 760.084936 754.888581 C 760.084936 766.226082 769.060457 775.201603 779.925562 775.201603 L 820.07921 775.201603 C 830.944315 775.201603 839.919836 766.226082 839.919836 754.888581 L 839.919836 715.207329 C 839.919836 703.869829 830.944315 694.894307 820.07921 694.894307 Z M 1060.056306 694.894307 C 1048.718805 694.894307 1040.21568 703.869829 1040.21568 715.207329 L 1040.21568 754.888581 C 1040.21568 766.226082 1048.718805 775.201603 1060.056306 775.201603 L 1100.209954 775.201603 C 1111.075058 775.201603 1120.05058 766.226082 1120.05058 754.888581 L 1120.05058 715.207329 C 1120.05058 703.869829 1111.075058 694.894307 1100.209954 694.894307 Z M 1220.198502 694.894307 C 1208.861001 694.894307 1199.88548 703.869829 1199.88548 715.207329 L 1199.88548 754.888581 C 1199.88548 766.226082 1208.861001 775.201603 1220.198502 775.201603 L 1259.879754 775.201603 C 1271.217254 775.201603 1280.192776 766.226082 1280.192776 754.888581 L 1280.192776 715.207329 C 1280.192776 703.869829 1271.217254 694.894307 1259.879754 694.894307 Z M 700.090662 775.201603 C 688.753161 775.201603 679.77764 784.177125 679.77764 795.042229 L 679.77764 835.195877 C 679.77764 846.060982 688.753161 855.036503 700.090662 855.036503 L 739.771914 855.036503 C 751.109414 855.036503 760.084936 846.060982 760.084936 835.195877 L 760.084936 795.042229 C 760.084936 784.177125 751.109414 775.201603 739.771914 775.201603 Z M 1139.891206 775.201603 C 1129.026101 775.201603 1120.05058 784.177125 1120.05058 795.042229 L 1120.05058 835.195877 C 1120.05058 846.060982 1129.026101 855.036503 1139.891206 855.036503 L 1180.044854 855.036503 C 1190.909958 855.036503 1199.88548 846.060982 1199.88548 835.195877 L 1199.88548 795.042229 C 1199.88548 784.177125 1190.909958 775.201603 1180.044854 775.201603 Z M 619.783366 855.036503 C 608.918261 855.036503 599.94274 864.012025 599.94274 875.349525 L 599.94274 915.030777 C 599.94274 926.368278 608.918261 935.343799 619.783366 935.343799 L 659.937014 935.343799 C 671.274514 935.343799 679.77764 926.368278 679.77764 915.030777 L 679.77764 875.349525 C 679.77764 864.012025 671.274514 855.036503 659.937014 855.036503 Z M 779.925562 855.036503 C 769.060457 855.036503 760.084936 864.012025 760.084936 875.349525 L 760.084936 915.030777 C 760.084936 926.368278 769.060457 935.343799 779.925562 935.343799 L 820.07921 935.343799 C 830.944315 935.343799 839.919836 926.368278 839.919836 915.030777 L 839.919836 875.349525 C 839.919836 864.012025 830.944315 855.036503 820.07921 855.036503 Z M 1060.056306 855.036503 C 1048.718805 855.036503 1040.21568 864.012025 1040.21568 875.349525 L 1040.21568 915.030777 C 1040.21568 926.368278 1048.718805 935.343799 1060.056306 935.343799 L 1100.209954 935.343799 C 1111.075058 935.343799 1120.05058 926.368278 1120.05058 915.030777 L 1120.05058 875.349525 C 1120.05058 864.012025 1111.075058 855.036503 1100.209954 855.036503 Z M 1220.198502 855.036503 C 1208.861001 855.036503 1199.88548 864.012025 1199.88548 875.349525 L 1199.88548 915.030777 C 1199.88548 926.368278 1208.861001 935.343799 1220.198502 935.343799 L 1259.879754 935.343799 C 1271.217254 935.343799 1280.192776 926.368278 1280.192776 915.030777 L 1280.192776 875.349525 C 1280.192776 864.012025 1271.217254 855.036503 1259.879754 855.036503 Z M 820.07921 1015.178699 C 808.741709 1015.178699 799.766188 1024.154221 799.766188 1035.019325 L 799.766188 1075.172973 C 799.766188 1086.038078 808.741709 1095.013599 820.07921 1095.013599 L 1060.056306 1095.013599 C 1070.92141 1095.013599 1079.896932 1086.038078 1079.896932 1075.172973 L 1079.896932 1035.019325 C 1079.896932 1024.154221 1070.92141 1015.178699 1060.056306 1015.178699 Z M 739.771914 1095.013599 C 728.906809 1095.013599 719.931288 1103.989121 719.931288 1115.326621 L 719.931288 1155.007873 C 719.931288 1166.345374 728.906809 1175.320895 739.771914 1175.320895 L 779.925562 1175.320895 C 791.263062 1175.320895 799.766188 1166.345374 799.766188 1155.007873 L 799.766188 1115.326621 C 799.766188 1103.989121 791.263062 1095.013599 779.925562 1095.013599 Z M 1100.209954 1095.013599 C 1088.872453 1095.013599 1079.896932 1103.989121 1079.896932 1115.326621 L 1079.896932 1155.007873 C 1079.896932 1166.345374 1088.872453 1175.320895 1100.209954 1175.320895 L 1139.891206 1175.320895 C 1151.228706 1175.320895 1160.204228 1166.345374 1160.204228 1155.007873 L 1160.204228 1115.326621 C 1160.204228 1103.989121 1151.228706 1095.013599 1139.891206 1095.013599 Z M 659.937014 1175.320895 C 649.071909 1175.320895 640.096388 1183.824021 640.096388 1195.161521 L 640.096388 1235.315169 C 640.096388 1246.180274 649.071909 1255.155795 659.937014 1255.155795 L 700.090662 1255.155795 C 710.955767 1255.155795 719.931288 1246.180274 719.931288 1235.315169 L 719.931288 1195.161521 C 719.931288 1183.824021 710.955767 1175.320895 700.090662 1175.320895 Z M 1180.044854 1175.320895 C 1168.707353 1175.320895 1160.204228 1183.824021 1160.204228 1195.161521 L 1160.204228 1235.315169 C 1160.204228 1246.180274 1168.707353 1255.155795 1180.044854 1255.155795 L 1220.198502 1255.155795 C 1231.063606 1255.155795 1240.039128 1246.180274 1240.039128 1235.315169 L 1240.039128 1195.161521 C 1240.039128 1183.824021 1231.063606 1175.320895 1220.198502 1175.320895 Z M 1180.044854 1175.320895 " transform="matrix(0.00826902,0,0,0.00826902,0,0)"/>
</g>
</svg>

<svg xmlns="http://www.w3.org/2000/svg" width="16pt" height="16pt" viewBox="0 0 16 16"><defs><linearGradient id="a" gradientUnits="userSpaceOnUse" x1="254" y1="233.5" x2="254" y2="254.667" gradientTransform="matrix(.03125 0 0 .03125 .33 6.72)"><stop offset="0" stop-opacity=".275"/><stop offset="1" stop-opacity="0"/></linearGradient><radialGradient id="b" gradientUnits="userSpaceOnUse" cx="450.909" cy="189.579" fx="450.909" fy="189.579" r="21.167" gradientTransform="matrix(0 -.03907 -.07032 0 24.742 31.798)"><stop offset="0" stop-opacity=".314"/><stop offset=".222" stop-opacity=".275"/><stop offset="1" stop-opacity="0"/></radialGradient><radialGradient id="c" gradientUnits="userSpaceOnUse" cx="450.909" cy="189.579" fx="450.909" fy="189.579" r="21.167" gradientTransform="matrix(0 .03907 .07032 0 -9.197 -3.764)"><stop offset="0" stop-opacity=".314"/><stop offset=".222" stop-opacity=".275"/><stop offset="1" stop-opacity="0"/></radialGradient><radialGradient id="d" gradientUnits="userSpaceOnUse" cx="450.909" cy="189.579" fx="450.909" fy="189.579" r="21.167" gradientTransform="matrix(0 -.03907 .07032 0 -9.197 31.798)"><stop offset="0" stop-opacity=".314"/><stop offset=".222" stop-opacity=".275"/><stop offset="1" stop-opacity="0"/></radialGradient><radialGradient id="e" gradientUnits="userSpaceOnUse" cx="450.909" cy="189.579" fx="450.909" fy="189.579" r="21.167" gradientTransform="matrix(0 .03907 -.07032 0 24.742 -3.764)"><stop offset="0" stop-opacity=".314"/><stop offset=".222" stop-opacity=".275"/><stop offset="1" stop-opacity="0"/></radialGradient><linearGradient id="f" gradientUnits="userSpaceOnUse" x1="940" y1="1695.118" x2="940" y2="175.118" gradientTransform="rotate(.882) scale(.00827)"><stop offset="0" stop-color="#ef9a9a"/><stop offset="1" stop-color="#ffcdd2"/></linearGradient><linearGradient id="g" gradientUnits="userSpaceOnUse" x1="249.189" y1="233.5" x2="249.189" y2="254.667" gradientTransform="matrix(.01495 0 0 .0547 7.521 -8.18)"><stop offset="0" stop-opacity=".275"/><stop offset="1" stop-opacity="0"/></linearGradient><linearGradient id="h" gradientUnits="userSpaceOnUse" x1="338.667" y1="233.5" x2="338.667" y2="-168.667" gradientTransform="matrix(.03125 0 0 .03125 0 6.72)"><stop offset="0" stop-color="#ef5350"/><stop offset="1" stop-color="#e57373"/></linearGradient><linearGradient id="i" gradientUnits="userSpaceOnUse" x1="940" y1="1695.118" x2="940" y2="175.118"><stop offset="0" stop-color="#ef5350"/><stop offset="1" stop-color="#e57373"/></linearGradient></defs><path d="M3.969 14.016h7.61v.664h-7.61zm0 0" fill="url(#a)"/><path d="M11.578 14.016h1.32v-.66h-1.32zm0 0" fill="url(#b)"/><path d="M3.969 14.016H2.645v.664h1.324zm0 0" fill="url(#c)"/><path d="M3.969 14.016H2.645v-.66h1.324zm0 0" fill="url(#d)"/><path d="M11.578 14.016h1.32v.664h-1.32zm0 0" fill="url(#e)"/><path d="M9.27 1.45H3.309a.66.66 0 0 0-.664.66v11.245c0 .368.296.66.664.66h8.93c.366 0 .66-.292.66-.66V5.078zm0 0" fill="url(#f)"/><path d="M9.262 4.59h3.14l.496.496v.66H9.262zm0 0" fill="url(#g)"/><path d="M2.645 13.098v.257c0 .368.296.66.664.66h8.93c.366 0 .66-.292.66-.66v-.257a.66.66 0 0 1-.66.664h-8.93a.664.664 0 0 1-.664-.664zm0 0" fill-opacity=".235"/><path d="M3.309 1.45a.66.66 0 0 0-.664.66v.25c0-.368.296-.665.664-.665h5.96l3.63 3.63v-.247L9.268 1.45zm0 0" fill="#f6f6f6" fill-opacity=".588"/><path d="M12.898 5.078L9.27 1.45v2.965c0 .367.296.664.664.664zm0 0" fill="url(#h)"/><path d="M9.27 4.258v.156c0 .367.296.664.664.664h2.964l-.156-.156H9.934a.664.664 0 0 1-.664-.664zm0 0" fill-opacity=".235"/><path d="M9.27 1.45v.245l3.382 3.383h.246zm0 0" fill="#fff" fill-opacity=".392"/><path d="M9.27 1.402a.047.047 0 0 0-.047.047v2.965c0 .395.316.711.71.711h2.965c.02 0 .04-.012.043-.031.008-.016.004-.035-.007-.051l-3.63-3.629c-.007-.008-.023-.012-.034-.012zm.046.16l3.47 3.47H9.933a.614.614 0 0 1-.618-.618zm0 0" fill="#212121"/><path d="M3.309 1.402a.708.708 0 0 0-.711.707v11.246c0 .391.316.707.71.707h8.93c.39 0 .707-.316.707-.707V5.078c0-.016-.004-.027-.011-.035l-3.63-3.629c-.007-.008-.019-.012-.034-.012zm0 .094H9.25l3.602 3.602v8.257c0 .34-.274.614-.614.614h-8.93a.613.613 0 0 1-.617-.614V2.11c0-.34.274-.613.618-.613zm0 0" fill="#212121"/><path d="M619.783 694.894c-10.865 0-19.84 8.976-19.84 20.313v39.682c0 11.337 8.975 20.313 19.84 20.313h40.154c11.338 0 19.84-8.976 19.84-20.313v-39.682c0-11.337-8.502-20.313-19.84-20.313zm160.143 0c-10.866 0-19.841 8.976-19.841 20.313v39.682c0 11.337 8.975 20.313 19.84 20.313h40.154c10.865 0 19.84-8.976 19.84-20.313v-39.682c0-11.337-8.975-20.313-19.84-20.313zm280.13 0c-11.337 0-19.84 8.976-19.84 20.313v39.682c0 11.337 8.503 20.313 19.84 20.313h40.154c10.865 0 19.84-8.976 19.84-20.313v-39.682c0-11.337-8.975-20.313-19.84-20.313zm160.143 0c-11.338 0-20.314 8.976-20.314 20.313v39.682c0 11.337 8.976 20.313 20.314 20.313h39.68c11.338 0 20.314-8.976 20.314-20.313v-39.682c0-11.337-8.976-20.313-20.313-20.313zM700.09 775.202c-11.338 0-20.313 8.975-20.313 19.84v40.154c0 10.865 8.975 19.84 20.313 19.84h39.68c11.338 0 20.314-8.975 20.314-19.84v-40.154c0-10.865-8.976-19.84-20.313-19.84zm439.8 0c-10.865 0-19.84 8.975-19.84 19.84v40.154c0 10.865 8.975 19.84 19.84 19.84h40.154c10.865 0 19.84-8.975 19.84-19.84v-40.154c0-10.865-8.975-19.84-19.84-19.84zm-520.108 79.835c-10.865 0-19.84 8.975-19.84 20.313v39.68c0 11.338 8.975 20.314 19.84 20.314h40.154c11.338 0 19.84-8.976 19.84-20.313V875.35c0-11.338-8.502-20.313-19.84-20.313zm160.143 0c-10.866 0-19.841 8.975-19.841 20.313v39.68c0 11.338 8.975 20.314 19.84 20.314h40.154c10.865 0 19.84-8.976 19.84-20.313V875.35c0-11.338-8.975-20.313-19.84-20.313zm280.13 0c-11.337 0-19.84 8.975-19.84 20.313v39.68c0 11.338 8.503 20.314 19.84 20.314h40.154c10.865 0 19.84-8.976 19.84-20.313V875.35c0-11.338-8.975-20.313-19.84-20.313zm160.143 0c-11.338 0-20.314 8.975-20.314 20.313v39.68c0 11.338 8.976 20.314 20.314 20.314h39.68c11.338 0 20.314-8.976 20.314-20.313V875.35c0-11.338-8.976-20.313-20.313-20.313zm-400.12 160.142c-11.337 0-20.313 8.975-20.313 19.84v40.154c0 10.865 8.976 19.84 20.313 19.84h239.977c10.865 0 19.84-8.975 19.84-19.84v-40.154c0-10.865-8.975-19.84-19.84-19.84zm-80.307 79.835c-10.865 0-19.84 8.975-19.84 20.313v39.68c0 11.338 8.975 20.314 19.84 20.314h40.154c11.337 0 19.84-8.976 19.84-20.313v-39.681c0-11.338-8.503-20.313-19.84-20.313zm360.438 0c-11.338 0-20.313 8.975-20.313 20.313v39.68c0 11.338 8.975 20.314 20.313 20.314h39.681c11.338 0 20.313-8.976 20.313-20.313v-39.681c0-11.338-8.975-20.313-20.313-20.313zm-440.273 80.307c-10.865 0-19.84 8.503-19.84 19.84v40.154c0 10.865 8.975 19.84 19.84 19.84h40.154c10.865 0 19.84-8.975 19.84-19.84v-40.153c0-11.338-8.975-19.841-19.84-19.841zm520.108 0c-11.338 0-19.84 8.503-19.84 19.84v40.154c0 10.865 8.502 19.84 19.84 19.84h40.154c10.865 0 19.84-8.975 19.84-19.84v-40.153c0-11.338-8.975-19.841-19.84-19.841zm0 0" transform="rotate(.882) scale(.00827)" fill="url(#i)" stroke-width="11.339" stroke-linecap="round" stroke-linejoin="round" stroke="#212121"/></svg>
